X: 7964
T: Congress, The
R: reel
M: 4/4
K: Adorian
|:d|eAA ABd|eaf ged|eAA eAA|BAG ABd|
eAA ABd|eaf ged|c2d e/f/gd|BAG A2:|
|:d|eaa aga|eag egd|e/f/gd egd|eaf ged|
eaa aga|eaf ged|c2d e/f/gd|BAG A2:|

